images/icon-mail.svg

<?xml version="1.0" encoding="UTF-8" standalone="no"?>
<!-- Generator: Adobe Illustrator 16.0.0, SVG Export Plug-In . SVG Version: 6.00 Build 0)  -->
<!DOCTYPE svg  PUBLIC '-//W3C//DTD SVG 1.1//EN'  'http://www.w3.org/Graphics/SVG/1.1/DTD/svg11.dtd'>
<svg id="Layer_1" xmlns="http://www.w3.org/2000/svg" xml:space="preserve" height="54px" viewBox="0 0 55 54" width="55px" version="1.1" y="0px" x="0px" xmlns:xlink="http://www.w3.org/1999/xlink" enable-background="new 0 0 55 54">
<path d="m45.46 12.459h-35.252c-3.246 0-5.875 2.63-5.875 5.874v23.5c0 3.245 2.629 5.877 5.875 5.877h35.252c3.242 0 5.873-2.632 5.873-5.877v-23.5c0-3.244-2.631-5.874-5.873-5.874zm-9.671 15.677l12.436-10.656c0.088 0.275 0.172 0.551 0.172 0.854v23.5c0 0.205-0.078 0.386-0.117 0.578l-12.491-14.276zm9.671-12.739c0.192 0 0.365 0.075 0.549 0.112l-18.176 15.58-18.176-15.58c0.184-0.037 0.355-0.112 0.551-0.112h35.252zm-38.074 27.011c-0.038-0.192-0.115-0.37-0.115-0.575v-23.5c0-0.303 0.087-0.579 0.175-0.854l12.431 10.654-12.491 14.275zm2.822 2.363c-0.296 0-0.565-0.086-0.838-0.17l12.736-14.556 4.774 4.088c0.273 0.238 0.613 0.356 0.953 0.356 0.341 0 0.681-0.118 0.955-0.356l4.771-4.088 12.736 14.556c-0.27 0.084-0.539 0.17-0.836 0.17h-35.251z" fill="#00A99D"/>
</svg>

<?xml version="1.0" encoding="utf-8"?>
<!-- Generator: Adobe Illustrator 16.0.0, SVG Export Plug-In . SVG Version: 6.00 Build 0)  -->
<!DOCTYPE svg PUBLIC "-//W3C//DTD SVG 1.1//EN" "http://www.w3.org/Graphics/SVG/1.1/DTD/svg11.dtd">
<svg version="1.1" id="Layer_1" xmlns="http://www.w3.org/2000/svg" xmlns:xlink="http://www.w3.org/1999/xlink" x="0px" y="0px"
	 width="55px" height="54px" viewBox="0 0 55 54" enable-background="new 0 0 55 54" xml:space="preserve">
<path fill="#00A99D" d="M45.46,12.459H10.208c-3.246,0-5.875,2.63-5.875,5.874v23.5c0,3.245,2.629,5.877,5.875,5.877H45.46
	c3.242,0,5.873-2.632,5.873-5.877v-23.5C51.333,15.089,48.702,12.459,45.46,12.459z M35.789,28.136L48.225,17.48
	c0.088,0.275,0.172,0.551,0.172,0.854v23.5c0,0.205-0.078,0.386-0.117,0.578L35.789,28.136z M45.46,15.397
	c0.192,0,0.365,0.075,0.549,0.112l-18.176,15.58L9.657,15.509c0.184-0.037,0.355-0.112,0.551-0.112H45.46z M7.386,42.408
	c-0.038-0.192-0.115-0.37-0.115-0.575v-23.5c0-0.303,0.087-0.579,0.175-0.854l12.431,10.654L7.386,42.408z M10.208,44.771
	c-0.296,0-0.565-0.086-0.838-0.17l12.736-14.556l4.774,4.088c0.273,0.238,0.613,0.356,0.953,0.356c0.341,0,0.681-0.118,0.955-0.356
	l4.771-4.088l12.736,14.556c-0.27,0.084-0.539,0.17-0.836,0.17H10.208z"/>
</svg>
